X:1
T: The Misses Little's Fancy
C:
R:Jig
Q:180
K:A
M:6/8
L:1/16
|:((4ABcd)|e6f4e2|e2a2f2 e2c2A2|d2c2B2 c2B2A2|F2B2B2 B4c2|
A2c2A2 B2d2B2|c2e2c2 f2a2f2|e2c2A2 E4E2|F2A2A2 A4:|
|:E2|C2E2E2 D2F2F2|E2G2G2 F2A2A2|G2B2B2 A2c2c2|d2B2B2 B6|
A2c2A2 B2d2B2|c2e2c2 f2a2f2|e2c2A2 E4E2|F2A2A2 A4:|
((4ABcd)|e6f4e2|e2a2f2 e2c2A2|d2c2B2 c2B2A2|F2B2B2 B4c2|
A2c2A2 B2d2B2|c2e2c2 f2a2f2|e2c2A2 E4E2|F2A2A2 A4E2|
C2E2E2 D2F2F2|E2G2G2 F2A2A2|G2B2B2 A2c2c2|d2B2B2 B6|
A2c2A2 B2d2B2|c2e2c2 f2a2f2|e2c2A2 E4E2|F2A2A2 A4||
